X:1
T:i Tiäfi vom Ranft (Bruder Klaus)  Bb
T:Armin Omlin (24.03.1971)
%T:Dirigenten-Notiz: Edi Gasser
%C:Unterwalden (CH)
%%partsbox
%P:ABAC
R:Naturjodel
M:2/4
L:1/4
K:Bb
M:4/4
[P:A] F/F/ | d>^cde | dBFF | d>Fde | 
cAFF | c>FAB | cAFF | cFdc | B3F/F/ | 
d>^cde | dBFB/c/ | d>Bdf | e3G/G/ | 
e>gfe | dBFd/B/ | c>fdd/c/ | B3z || 
M:2/4
[P:B] F/E/ | DF/B/ | d F/e/ | dB | c>F | EF/A/ | 
cc/d/ | cB | d>F | !breath!DF/B/ | dF/e/ | dB | 
c>F | EF/A/ | cF/F/ | e>e | dc | (B2 | B)z || 
M:3/4
[P:C] d/d/df | e3 | cce | d3 | F/F/Bd | [M:4/4] c2fe | d>cdc | B2dB | 
!fermata! !breath! Fd/d/df | eG/G/ce | d>FBd | c "rit."f/e/ d/>c/ d/c/ | B3z || 
L:1/8
M:2/4
[P:D]  FE | D>F FB | d2Fe | d>B BB | c2FD | E>F FA | 
c2cd | c>B BB | d2FE | D>F FB | d2 Fe | 
d>B BB | c2FD | E>F FA | c2FF | "rit."E>E dc | !fermata!B4 | 
[M:3/4] "AUSKLANG" "_ feierlich" ddd2f2 | e6 | c2c2e2 | d6 | FFB2d2 | [M:4/4] c4f2e2 | "rit." d3cd2c2 | !fermata!B6z2 |] 
W:anlässlich des 600. Geburtstags von Bruder Klaus 2017
%W:Reihenfolge: 
W:
W:UJV-Naturjodelsammlung: Code-Nr: 70-01
W:http://www.naturjodler.ch/code 70.htm  (with AUDIO)
W:Dirigentennotiz, notiert Edi Gasser. %Angaben: 
%October 13, 2018

